img/icons/mono/save.svg

<svg width="24" height="24" viewBox="0 0 24 24" fill="none" xmlns="http://www.w3.org/2000/svg">
<path d="M20 7V20C20 20.2652 19.8946 20.5196 19.7071 20.7071C19.5196 20.8946 19.2652 21 19 21H5C4.73478 21 4.48043 20.8946 4.29289 20.7071C4.10536 20.5196 4 20.2652 4 20V4C4 3.73478 4.10536 3.48043 4.29289 3.29289C4.48043 3.10536 4.73478 3 5 3H16L20 7ZM8 7H10H8ZM16 15H8V21H16V15Z" stroke="black" stroke-width="2" stroke-linecap="round" stroke-linejoin="round"/>
</svg>

<svg width="24" height="24" fill="none" xmlns="http://www.w3.org/2000/svg"><path d="M20 7v13a1 1 0 01-1 1H5a1 1 0 01-1-1V4a1 1 0 011-1h11l4 4zM8 7h2-2zm8 8H8v6h8v-6z" stroke="#000" stroke-width="2" stroke-linecap="round" stroke-linejoin="round"/></svg>
